icons/filled/alert-square.svg

<svg xmlns="http://www.w3.org/2000/svg" width="24" height="24" viewBox="0 0 24 24" fill="currentColor"><path d="M19 2a3 3 0 0 1 2.995 2.824l.005 .176v14a3 3 0 0 1 -2.824 2.995l-.176 .005h-14a3 3 0 0 1 -2.995 -2.824l-.005 -.176v-14a3 3 0 0 1 2.824 -2.995l.176 -.005h14zm-6.99 13l-.127 .007a1 1 0 0 0 0 1.986l.117 .007l.127 -.007a1 1 0 0 0 0 -1.986l-.117 -.007zm-.01 -8a1 1 0 0 0 -.993 .883l-.007 .117v4l.007 .117a1 1 0 0 0 1.986 0l.007 -.117v-4l-.007 -.117a1 1 0 0 0 -.993 -.883z"/></svg>

<svg xmlns="http://www.w3.org/2000/svg" width="24" height="24" fill="currentColor"><path d="M19 2a3 3 0 0 1 2.995 2.824L22 5v14a3 3 0 0 1-2.824 2.995L19 22H5a3 3 0 0 1-2.995-2.824L2 19V5a3 3 0 0 1 2.824-2.995L5 2zm-6.99 13-.127.007a1 1 0 0 0 0 1.986L12 17l.127-.007a1 1 0 0 0 0-1.986zM12 7a1 1 0 0 0-.993.883L11 8v4l.007.117a1 1 0 0 0 1.986 0L13 12V8l-.007-.117A1 1 0 0 0 12 7"/></svg>
